!!!COM: Bach, Johann Sebastian
!!!OPR: Joh. Seb. Bachs vierstimmige Choralges‰nge
!!!XEN: Four-part Chorales
!!!OTL: 152. O wie selig seid ihr doch, ihr Frommen
!!!SCT: BWV 405
!!!SCA: Thematisch-systematisches Verzeichnis der musikalischen Werke Johann Sebastian Bach: Bach-Werke-Verzeichnis (Schmieder)
!!!YOR: Bach Gesellschaft Edition xxxix
!!!ENC: Steven Rasmussen
!!!CDT: 1685/3//-1750/7/28/
!!!OCY: Deutschland
!!!YEC: Copyright (c) 1994, 2000 Center for Computer Assisted Research in the Humanities
!!!YEM: Rights to all derivative editions reserved
!!!YEN: United States of America
**kern	**silbe	**kern	**kern	**kern
*I:[SOPRANO]	*I:[SOPRANO]	*I:[ALTO]	*I:[TENORE]	*I:[BASSO]
*clefG2	*	*clefG2	*clefGv2	*clefF4
*k[b-]	*	*k[b-]	*k[b-]	*k[b-]
*d:	*	*d:	*d:	*d:
*M4/4	*	*M4/4	*M4/4	*M4/4
=1-	=1-	=1-	=1-	=1-
4a	O	4f	4d	4D
4dd	wie	4g	4d	8CL
.	.	.	.	8BB-J
4cc	se-	4g	4e	4AA
8b-L	-lig	4f	4d	4D
8aJ	.	.	.	.
=2	=2	=2	=2	=2
4b-	seid	8fL	8dL	4GG
.	.	8eJ	8B-J	.
4a	ihr	4f	4c	8AAL
.	.	.	.	8BB-J
4g	doch,	8fL	4c	4C
.	.	8eJ	.	.
8aL	ihr	4f	4c	4F
8b-J	.	.	.	.
=3	=3	=3	=3	=3
2g	From-	4f	8dL	4BB-
.	.	.	8B-	.
.	.	4e	8G	4C
.	.	.	8cJ	.
2f;	-men,	2c;	2A;	2FF;
=4	=4	=4	=4	=4
8aL	die	4f	8cL	4F
8b-J	.	.	8dJ	.
4cc	ihr	8gL	8eL	8EL
.	.	8aJ	8dJ	8F#J
4.bn	durch	4g	4d	8GL
.	.	.	.	8FnJ
.	.	4g	4e	4E
8cc#	den	.	.	.
=5	=5	=5	=5	=5
4dd	Tod	8aL	8dL	8F#L
.	.	8bnJ	8BnJ	8G#J
8ccL	zu	4a	4e	4A
8ddJ	.	.	.	.
4ee	Gott	4a	4e	4C
8ddL	ge-	4a	4f	4D
8ccJ	.	.	.	.
=6	=6	=6	=6	=6
2bn	-kom-	4a	8Bn	4E
.	.	.	4e	.
.	.	4g#	.	4EE
.	.	.	8d	.
2a;	-men!	2e;	2c#;	2AA;
=7	=7	=7	=7	=7
4r	.	4r	4r	4r
4a	Ihr	4c#	4E	4AA
4g	seid	4d	4D	4BBn
4e	ent-	4e	4A	4C#
=8	=8	=8	=8	=8
2f	-gan-	4e	2A	4D
.	.	4d	.	4DD
2e;	-gen	2c#;	2A;	2AA;
=9	=9	=9	=9	=9
4d	al-	4d	4A	4F
4e	-ler	4A	4A	4C#
4f	Not,	4d	8AL	4D
.	.	.	8B-J	.
4g	die	4c	8AL	4E
.	.	.	8GJ	.
=10	=10	=10	=10	=10
4a	uns	4c	8FL	4F
.	.	.	8AJ	.
4bn	noch	4f	8GL	8EL
.	.	.	8FJ	8DJ
4cc#	h√§lt	4e	4G	4E
4dd	ge-	8dL	8AL	8FL
.	.	8eJ	8B-J	8GJ
=11	=11	=11	=11	=11
4dd	-fan-	8fL	2A	4A
.	.	16eL	.	.
.	.	16dJJ	.	.
4cc#	.	4e	.	4AA
2dd;	-gen.	2f#;	2A;	2D;
==|!	==|!	==|!	==|!	==|!
*-	*-	*-	*-	*-
!!!RWG: Key is interpreted using the Humdrum key tool.
!!!END: 1994/07/29
!!!EMD: Converted from MuseData to Humdrum Dec 19, 2000, by Andreas Kornstaedt using muse2kern.
!!!EED: Craig Stuart Sapp
!!!EEV: 2024/03/31
!!!ONB: Some non-unicode characters
